src/assets/top_menu_insights.svg

<svg width="48" height="48" viewBox="0 0 48 48" fill="none" xmlns="http://www.w3.org/2000/svg">
<path d="M8.2961 4.36365C8.11135 4.36365 7.9266 4.43694 7.81575 4.58352C7.5571 4.84005 7.5571 5.2798 7.81575 5.57297C8.0744 5.82949 8.5178 5.82949 8.8134 5.57297C9.07205 5.31645 9.07205 4.87669 8.8134 4.58352C8.6656 4.40029 8.48085 4.36365 8.2961 4.36365ZM39.7037 4.36365C39.519 4.36365 39.3342 4.43694 39.2234 4.58352C38.9647 4.8034 38.9647 5.24316 39.2234 5.53632C39.482 5.79285 39.9254 5.79285 40.221 5.53632C40.4797 5.2798 40.4797 4.84005 40.221 4.54688C40.0732 4.40029 39.8885 4.36365 39.7037 4.36365ZM23.9999 8.10156C16.9424 8.10156 11.2152 13.7817 11.2152 20.7811C11.2152 24.7756 12.9888 27.3041 14.6885 29.2097C15.5383 30.1625 16.3512 30.9688 16.9424 31.7383C17.5336 32.5079 17.8662 33.2042 17.8662 34.0104V35.1098V39.5073C17.8662 41.0098 19.1225 42.2558 20.6374 42.2558H21.2656C21.5243 43.5018 22.6328 44.4546 23.9999 44.4546C25.3671 44.4546 26.4756 43.5018 26.7342 42.2558H27.3624C28.8773 42.2558 30.1336 41.0098 30.1336 39.5073V34.5234V33.9738C30.1336 33.1675 30.4662 32.4713 31.0574 31.7017C31.6486 30.9321 32.4615 30.1259 33.3113 29.1731C35.0111 27.2675 36.7847 24.7756 36.7847 20.7445C36.7847 13.7817 31.0574 8.10156 23.9999 8.10156ZM23.9999 9.20094C30.4662 9.20094 35.6762 14.3681 35.6762 20.7445C35.6762 24.4457 34.1242 26.6079 32.4984 28.4402C31.6855 29.3563 30.8357 30.1625 30.1706 31.0421C29.5055 31.9216 29.0251 32.8744 29.0251 33.9738V34.5234H26.2539V23.383C27.2146 23.1265 27.9166 22.3203 27.9166 21.2942C27.9166 20.0849 26.919 19.0954 25.6996 19.0954C25.0345 19.0954 24.4433 19.4252 24.0369 19.9016C23.5935 19.4252 23.0023 19.0954 22.3372 19.0954C21.1178 19.0954 20.1201 20.0849 20.1201 21.2942C20.1201 22.3203 20.8222 23.1265 21.7829 23.383V34.5234H19.0116V33.9738C19.0116 32.8377 18.5313 31.8849 17.8662 31.0421C17.2011 30.1625 16.3512 29.3563 15.5383 28.4402C13.9125 26.6079 12.3606 24.4457 12.3606 20.7445C12.3237 14.3681 17.5706 9.20094 23.9999 9.20094ZM10.7348 6.78229C10.5501 6.78229 10.3653 6.85559 10.2545 7.00217C9.9958 7.25869 9.9958 7.69845 10.2545 7.99162C10.5131 8.24814 10.9565 8.24814 11.2521 7.99162C11.5108 7.7351 11.5108 7.29534 11.2521 7.00217C11.1043 6.85559 10.9196 6.78229 10.7348 6.78229ZM37.265 6.78229C37.0803 6.78229 36.8955 6.85559 36.7847 7.00217C36.526 7.25869 36.526 7.69845 36.7847 7.99162C37.0433 8.24814 37.4867 8.24814 37.7823 7.99162C38.041 7.7351 38.041 7.29534 37.7823 7.00217C37.5976 6.85559 37.4498 6.78229 37.265 6.78229ZM8.55475 9.60405C8.2961 9.5674 8.0005 9.67734 7.8527 9.89722C7.631 10.227 7.74185 10.6301 8.03745 10.85C8.37 11.0699 8.77645 10.96 8.99815 10.6668C9.21985 10.337 9.109 9.93387 8.8134 9.71399C8.7395 9.67734 8.62865 9.6407 8.55475 9.60405ZM39.4451 9.60405C39.3712 9.60405 39.2603 9.6407 39.1864 9.71399C38.8539 9.93387 38.78 10.337 39.0017 10.6668C39.2234 10.9966 39.6298 11.0699 39.9624 10.85C40.2949 10.6301 40.3688 10.227 40.1471 9.89722C39.9993 9.67734 39.7037 9.5674 39.4451 9.60405ZM3.49258 11.5097C3.23393 11.5097 2.97528 11.6562 2.86443 11.9494C2.71663 12.3159 2.90138 12.719 3.23393 12.8656C3.60343 13.0121 4.00988 12.8289 4.15768 12.4991C4.30548 12.1326 4.12073 11.7295 3.78818 11.5829C3.67733 11.5097 3.56648 11.5097 3.49258 11.5097ZM44.5442 11.5097C44.4703 11.5097 44.3594 11.5097 44.2855 11.5463C43.916 11.6929 43.7682 12.096 43.916 12.4625C44.0638 12.8289 44.4703 12.9755 44.8398 12.8289C45.2093 12.6823 45.3571 12.2792 45.2093 11.9128C45.0615 11.6562 44.8028 11.5097 44.5442 11.5097ZM6.67029 12.8289C6.41164 12.8289 6.15299 12.9755 6.04214 13.2687C5.89434 13.6351 6.07909 14.0382 6.41164 14.1848C6.78114 14.3314 7.18759 14.1482 7.33539 13.8184C7.4832 13.4519 7.29844 13.0488 6.96589 12.9022C6.85504 12.8289 6.78114 12.8289 6.67029 12.8289ZM41.3295 12.8289C41.2556 12.8289 41.1448 12.8289 41.0709 12.8656C40.7014 13.0121 40.5536 13.4153 40.7014 13.7817C40.8492 14.1482 41.2556 14.2948 41.6251 14.1482C41.9946 14.0016 42.1424 13.5985 41.9946 13.232C41.8468 12.9755 41.5882 12.8289 41.3295 12.8289ZM5.74654 16.3103C5.37704 16.237 5.00754 16.4935 4.93364 16.86C4.85973 17.2265 5.11839 17.5929 5.48789 17.6662C5.85739 17.7395 6.22689 17.483 6.30079 17.1165C6.37469 16.7501 6.11604 16.3836 5.74654 16.3103ZM42.2533 16.3103C41.8838 16.3836 41.6251 16.7501 41.699 17.1165C41.7729 17.483 42.1424 17.7395 42.5119 17.6662C42.8814 17.5929 43.1401 17.2265 43.0662 16.86C42.9923 16.4935 42.6228 16.237 42.2533 16.3103ZM1.79287 19.9383C1.42337 19.9383 1.09082 20.2314 1.09082 20.6345C1.09082 21.001 1.38642 21.3308 1.79287 21.3308C2.19932 21.3308 2.49493 21.0377 2.49493 20.6345C2.49493 20.2314 2.16237 19.9383 1.79287 19.9383ZM5.26619 19.9383C4.89669 19.9383 4.56413 20.2314 4.56413 20.6345C4.56413 21.001 4.85974 21.3308 5.26619 21.3308C5.67264 21.3308 5.96824 21.0377 5.96824 20.6345C5.96824 20.2314 5.63569 19.9383 5.26619 19.9383ZM22.3372 20.1948C22.9653 20.1948 23.4457 20.6712 23.4457 21.2942H24.5542C24.5542 20.6712 25.0345 20.1948 25.6627 20.1948C26.2908 20.1948 26.7712 20.6712 26.7712 21.2942C26.7712 21.9172 26.2908 22.3936 25.6627 22.3936H25.1084V34.5234H22.8914V22.3936H22.3372C21.709 22.3936 21.2286 21.9172 21.2286 21.2942C21.2286 20.7078 21.709 20.1948 22.3372 20.1948ZM42.7336 19.9383C42.3641 19.9383 42.0316 20.2314 42.0316 20.6345C42.0316 21.001 42.3272 21.3308 42.7336 21.3308C43.1401 21.3308 43.4357 21.0377 43.4357 20.6345C43.4357 20.2314 43.1401 19.9383 42.7336 19.9383ZM46.2069 19.9383C45.8374 19.9383 45.5049 20.2314 45.5049 20.6345C45.5049 21.001 45.8005 21.3308 46.2069 21.3308C46.6134 21.3308 46.909 21.0377 46.909 20.6345C46.909 20.2314 46.6134 19.9383 46.2069 19.9383ZM5.48789 23.5662C5.11839 23.6395 4.85973 24.006 4.93364 24.3725C5.00754 24.7389 5.37704 24.9954 5.74654 24.9221C6.11604 24.8489 6.37469 24.4824 6.30079 24.1159C6.22689 23.7495 5.85739 23.4929 5.48789 23.5662ZM42.2533 23.5662C41.9946 23.6029 41.7729 23.8228 41.699 24.1159C41.6251 24.4824 41.8838 24.8489 42.2533 24.9221C42.6228 24.9954 42.9923 24.7389 43.0662 24.3725C43.1401 24.006 42.8814 23.6395 42.5119 23.5662C42.438 23.5662 42.3272 23.5662 42.2533 23.5662ZM6.70724 27.0476C6.63334 27.0476 6.52249 27.0476 6.44859 27.0843C6.07909 27.2309 5.93129 27.634 6.07909 28.0004C6.22689 28.3669 6.63334 28.5135 7.00284 28.3669C7.37234 28.2203 7.52015 27.8172 7.37234 27.4507C7.22454 27.1942 6.96589 27.0476 6.70724 27.0476ZM41.3295 27.0476C41.0709 27.0476 40.8122 27.1942 40.7014 27.4874C40.5536 27.8538 40.7383 28.2569 41.0709 28.4035C41.4404 28.5501 41.8468 28.3669 41.9946 28.0371C42.1424 27.6706 41.9577 27.2675 41.6251 27.1209C41.4773 27.0476 41.4034 27.0476 41.3295 27.0476ZM3.49258 28.3669C3.41868 28.3669 3.30783 28.3669 3.23393 28.4035C2.86443 28.5501 2.71663 28.9532 2.86443 29.3197C3.01223 29.6861 3.41868 29.8327 3.78818 29.6861C4.15768 29.5396 4.30548 29.1365 4.15768 28.77C4.00988 28.5135 3.75123 28.3669 3.49258 28.3669ZM44.5072 28.3669C44.2486 28.3669 43.9899 28.5135 43.8791 28.8066C43.7313 29.1731 43.916 29.5762 44.2486 29.7228C44.6181 29.8694 45.0245 29.6861 45.1723 29.3563C45.3201 28.9899 45.1354 28.5868 44.8028 28.4402C44.692 28.3669 44.6181 28.3669 44.5072 28.3669ZM8.2961 30.2725C8.2222 30.2725 8.11135 30.3091 8.03745 30.3824C7.7049 30.6023 7.631 31.0054 7.8527 31.3352C8.0744 31.665 8.48085 31.7383 8.8134 31.5185C9.14595 31.2986 9.21985 30.8955 8.99815 30.5657C8.85035 30.3091 8.55475 30.1992 8.2961 30.2725ZM39.7037 30.2725C39.4451 30.2358 39.1495 30.3458 39.0017 30.5657C38.78 30.8955 38.8908 31.2986 39.1864 31.5185C39.519 31.7383 39.9254 31.6284 40.1471 31.3352C40.3688 31.0054 40.258 30.6023 39.9624 30.3824C39.8885 30.3091 39.8146 30.2725 39.7037 30.2725ZM10.7348 33.0576C10.5501 33.0576 10.3653 33.1309 10.2545 33.2775C9.9958 33.534 9.9958 33.9738 10.2545 34.2669C10.5131 34.5234 10.9565 34.5234 11.2521 34.2669C11.5108 34.0104 11.5108 33.5706 11.2521 33.2775C11.1043 33.1309 10.9196 33.0576 10.7348 33.0576ZM37.265 33.0576C37.0803 33.0576 36.8955 33.1309 36.7847 33.2775C36.526 33.534 36.526 33.9738 36.7847 34.2669C37.0433 34.5234 37.4867 34.5234 37.7823 34.2669C38.041 34.0104 38.041 33.5706 37.7823 33.2775C37.5976 33.1309 37.4498 33.0576 37.265 33.0576ZM39.7037 35.5129C39.519 35.5129 39.3342 35.5862 39.2234 35.7328C38.9647 35.9893 38.9647 36.429 39.2234 36.7222C39.482 36.9787 39.9254 36.9787 40.221 36.7222C40.4797 36.4657 40.4797 36.0259 40.221 35.7328C40.0732 35.5862 39.8885 35.5129 39.7037 35.5129ZM8.2961 35.5129C8.11135 35.5129 7.9266 35.5862 7.81575 35.7328C7.5571 35.9893 7.5571 36.429 7.81575 36.7222C8.0744 36.9787 8.5178 36.9787 8.8134 36.7222C9.07205 36.4657 9.07205 36.0259 8.8134 35.7328C8.6656 35.5862 8.48085 35.5129 8.2961 35.5129ZM19.0116 35.6228H28.9882V36.7222H22.3372V37.8216H28.9882V38.921H22.3372V40.0204H28.9143C28.6926 40.68 28.0644 41.1198 27.3624 41.1198H20.7113C19.9723 41.1198 19.3811 40.6434 19.1594 40.0204H21.2286V38.921H19.0116V37.8216H21.2286V36.7222H19.0116V35.6228ZM22.448 42.2191H25.5888C25.3671 42.8788 24.7389 43.3185 24.0369 43.3185C23.2609 43.3185 22.6697 42.8788 22.448 42.2191Z" fill="url(#paint0_linear)"/>
<defs>
<linearGradient id="paint0_linear" x1="1.09703" y1="24.3932" x2="46.909" y2="24.3932" gradientUnits="userSpaceOnUse">
<stop stop-color="#316BAE"/>
<stop offset="1" stop-color="#C82F3F"/>
</linearGradient>
</defs>
</svg>

<svg width="48" height="48" fill="none" xmlns="http://www.w3.org/2000/svg"><path d="M8.296 4.364a.598.598 0 0 0-.48.22c-.259.256-.259.696 0 .989.258.256.702.256.997 0 .26-.257.26-.696 0-.99-.147-.183-.332-.22-.517-.22zm31.408 0a.598.598 0 0 0-.48.22c-.26.22-.26.66 0 .952.258.257.701.257.997 0 .259-.256.259-.696 0-.99-.148-.146-.332-.182-.517-.182zM24 8.102c-7.058 0-12.785 5.68-12.785 12.68 0 3.994 1.774 6.522 3.473 8.428.85.953 1.663 1.759 2.254 2.528.592.77.924 1.466.924 2.272v5.497c0 1.503 1.256 2.749 2.771 2.749h.629A2.776 2.776 0 0 0 24 44.455a2.775 2.775 0 0 0 2.734-2.2h.628c1.515 0 2.772-1.245 2.772-2.748v-5.534c0-.806.332-1.502.923-2.271.592-.77 1.405-1.576 2.254-2.529 1.7-1.905 3.474-4.397 3.474-8.428 0-6.963-5.728-12.643-12.785-12.643zM24 9.2c6.466 0 11.676 5.167 11.676 11.543 0 3.702-1.552 5.864-3.178 7.696-.812.916-1.662 1.723-2.327 2.602-.665.88-1.146 1.832-1.146 2.932v.55h-2.771V23.382c.96-.256 1.663-1.063 1.663-2.089 0-1.21-.998-2.199-2.217-2.199-.665 0-1.257.33-1.663.807-.444-.477-1.035-.807-1.7-.807-1.22 0-2.217.99-2.217 2.2 0 1.025.702 1.831 1.663 2.088v11.14h-2.771v-.55c0-1.135-.48-2.088-1.146-2.93-.665-.88-1.515-1.687-2.328-2.603-1.626-1.832-3.177-3.994-3.177-7.696C12.324 14.368 17.57 9.201 24 9.201zM10.735 6.782a.598.598 0 0 0-.48.22c-.26.257-.26.696 0 .99.258.256.701.256.997 0 .259-.257.259-.697 0-.99a.732.732 0 0 0-.517-.22zm26.53 0a.598.598 0 0 0-.48.22c-.259.257-.259.696 0 .99.258.256.702.256.997 0 .259-.257.259-.697 0-.99-.184-.146-.332-.22-.517-.22zM8.555 9.604c-.259-.037-.554.073-.702.293-.222.33-.111.733.184.953.333.22.74.11.961-.183.222-.33.111-.733-.185-.953-.074-.037-.184-.073-.258-.11zm30.89 0a.401.401 0 0 0-.259.11c-.332.22-.406.623-.184.953.221.33.628.403.96.183.333-.22.407-.623.185-.953-.148-.22-.443-.33-.702-.293zM3.493 11.51a.663.663 0 0 0-.629.44.715.715 0 0 0 .37.916.726.726 0 0 0 .924-.367.715.715 0 0 0-.37-.916c-.11-.073-.222-.073-.295-.073zm41.051 0c-.074 0-.185 0-.258.036-.37.147-.518.55-.37.917.148.366.554.513.924.366.37-.147.517-.55.37-.916a.78.78 0 0 0-.666-.403zM6.67 12.829a.663.663 0 0 0-.628.44.715.715 0 0 0 .37.916.726.726 0 0 0 .923-.367.715.715 0 0 0-.37-.916c-.11-.073-.184-.073-.295-.073zm34.66 0c-.074 0-.185 0-.26.037-.369.146-.516.55-.369.916.148.366.555.513.924.366.37-.146.517-.55.37-.916a.78.78 0 0 0-.665-.403zM5.747 16.31a.705.705 0 0 0-.813.55c-.074.367.184.733.554.806a.705.705 0 0 0 .813-.55c.074-.366-.185-.732-.554-.806zm36.506 0c-.37.074-.628.44-.554.806a.705.705 0 0 0 .813.55c.37-.073.628-.44.554-.806a.705.705 0 0 0-.813-.55zm-40.46 3.628a.699.699 0 0 0-.702.697c0 .366.295.696.702.696a.677.677 0 0 0 .702-.697.699.699 0 0 0-.702-.696zm3.473 0a.699.699 0 0 0-.702.697c0 .366.296.696.702.696a.677.677 0 0 0 .702-.697.699.699 0 0 0-.702-.696zm17.071.257c.628 0 1.109.476 1.109 1.1h1.108c0-.624.48-1.1 1.109-1.1.628 0 1.108.476 1.108 1.1 0 .622-.48 1.099-1.108 1.099h-.555v12.13h-2.217v-12.13h-.554a1.084 1.084 0 0 1-1.108-1.1c0-.586.48-1.1 1.108-1.1zm20.397-.257a.699.699 0 0 0-.702.697c0 .366.295.696.702.696a.677.677 0 0 0 .702-.697.677.677 0 0 0-.702-.696zm3.473 0a.699.699 0 0 0-.702.697c0 .366.295.696.702.696a.677.677 0 0 0 .702-.697.677.677 0 0 0-.702-.696zm-40.72 3.628c-.369.074-.627.44-.553.806a.705.705 0 0 0 .813.55c.369-.073.628-.44.554-.806a.705.705 0 0 0-.813-.55zm36.766 0c-.258.037-.48.257-.554.55-.074.366.185.733.554.806a.705.705 0 0 0 .813-.55c.074-.366-.185-.732-.554-.806h-.259zM6.707 27.048c-.074 0-.185 0-.258.036-.37.147-.518.55-.37.916.148.367.554.514.924.367.37-.147.517-.55.37-.916a.78.78 0 0 0-.666-.403zm34.623 0a.663.663 0 0 0-.629.44.715.715 0 0 0 .37.916.726.726 0 0 0 .924-.367.715.715 0 0 0-.37-.916c-.148-.073-.222-.073-.295-.073zM3.492 28.367c-.074 0-.185 0-.26.037-.369.146-.516.55-.369.916.148.366.555.513.924.366.37-.146.517-.55.37-.916a.78.78 0 0 0-.665-.403zm41.014 0a.663.663 0 0 0-.628.44.715.715 0 0 0 .37.916.726.726 0 0 0 .923-.367.715.715 0 0 0-.37-.916c-.11-.073-.184-.073-.295-.073zm-36.21 1.905a.4.4 0 0 0-.26.11c-.332.22-.406.623-.184.953.221.33.628.403.96.183.333-.22.407-.623.185-.952a.62.62 0 0 0-.702-.293zm31.407 0c-.259-.036-.554.074-.702.294-.222.33-.111.733.184.953.333.22.74.11.961-.184.222-.33.111-.733-.185-.953a.337.337 0 0 0-.258-.11zm-28.97 2.786a.598.598 0 0 0-.48.22c-.258.256-.258.696 0 .989.26.256.703.256.998 0 .259-.257.259-.696 0-.99a.732.732 0 0 0-.517-.22zm26.531 0a.598.598 0 0 0-.48.22c-.259.256-.259.696 0 .989.258.256.702.256.997 0 .259-.257.259-.696 0-.99-.184-.146-.332-.22-.517-.22zm2.439 2.455a.598.598 0 0 0-.48.22c-.26.256-.26.696 0 .99.258.256.701.256.997 0 .259-.257.259-.697 0-.99a.732.732 0 0 0-.517-.22zm-31.408 0a.598.598 0 0 0-.48.22c-.259.256-.259.696 0 .99.258.256.702.256.997 0 .26-.257.26-.697 0-.99a.732.732 0 0 0-.517-.22zm10.716.11h9.976v1.1h-6.65v1.099h6.65v1.099h-6.65v1.1h6.576a1.63 1.63 0 0 1-1.552 1.099h-6.65c-.74 0-1.33-.477-1.553-1.1h2.07v-1.099h-2.217v-1.1h2.217v-1.099h-2.217v-1.1zm3.436 6.596h3.14a1.63 1.63 0 0 1-1.551 1.1c-.776 0-1.367-.44-1.589-1.1z" fill="url(#paint0_linear)"/><defs><linearGradient id="paint0_linear" x1="1.097" y1="24.393" x2="46.909" y2="24.393" gradientUnits="userSpaceOnUse"><stop stop-color="#316BAE"/><stop offset="1" stop-color="#C82F3F"/></linearGradient></defs></svg>
